X: 37381
T: Sleeping Tortoise, The
R: jig
M: 6/8
K: Amajor
|:"Bm" B,FF- F2 F|EFc dcA|"E" ABE EFE|EFC CDF|
"Bm" EFF- F2 F|EFc dcA|"E" BAF EFF|CFF EDC:|
|:"E" GEE DBA|GEE BAG|"Bm" FDD B,DE|EFD AGF|
"E" FGE DBA|GEE D2 F|EGA GAd|1 cdA GAD:|2 cdA GFE||

